icons/svg/paintbrush-2.svg

<svg width="24" height="24" viewBox="0 0 24 24" fill="none" xmlns="http://www.w3.org/2000/svg">
<path d="M9.78097 10.8319C9.38523 10.7261 8.96929 10.6697 8.54018 10.6697C5.89463 10.6697 3.74998 12.8143 3.74998 15.4599V19.2501C3.74998 19.8023 4.1977 20.2501 4.74999 20.2501H8.54018C11.1857 20.2501 13.3304 18.1054 13.3304 15.4599C13.3304 15.0308 13.274 14.6149 13.1681 14.2191M9.78097 10.8319C11.4293 11.2727 12.7273 12.5708 13.1681 14.2191M9.78097 10.8319L12.9712 7.64175M13.1681 14.2191L16.3583 11.0289M12.9712 7.64175L16.1613 4.45157C17.0967 3.51622 18.6132 3.51623 19.5485 4.45157C20.4839 5.38691 20.4839 6.90341 19.5485 7.83875L16.3583 11.0289M12.9712 7.64175L16.3583 11.0289" stroke="currentColor" stroke-width="1.5" stroke-linejoin="round"/>
</svg>

<svg xmlns="http://www.w3.org/2000/svg" width="24" height="24" fill="none" viewBox="0 0 24 24"><path stroke="currentColor" stroke-linejoin="round" stroke-width="1.5" d="M9.781 10.832A4.79 4.79 0 0 0 3.75 15.46v3.79a1 1 0 0 0 1 1h3.79a4.79 4.79 0 0 0 4.628-6.03m-3.387-3.388a4.8 4.8 0 0 1 3.387 3.387m-3.387-3.387 3.19-3.19m.197 6.577 3.19-3.19m-3.387-3.387 3.19-3.19a2.395 2.395 0 0 1 3.387 3.387l-3.19 3.19m-3.387-3.387 3.387 3.387"/></svg>
